X:358
T:Tommy Whelan's
Z: id:dc-reel-334
M:C
L:1/8
K:G Major
dB|G3A BAA2|bgag egdB|GEGA BAGE|ABAG EAEF|!
G3A BAA2|bgag egdB|GEGA BAGE|ABAG E2|]!
ef|gfeg fdBd|g2ef gaba|geed edBd|eaag agef|!
gfeg fdBd|g2ef gaba|gfge a^gaf|dgbg eg|]!

